icons/16/lock-filled.svg

<svg width="16" height="16" viewBox="0 0 16 16" xmlns="http://www.w3.org/2000/svg">
  <path fill-rule="evenodd" clip-rule="evenodd" d="M5.5 4C5.5 3.33696 5.76339 2.70107 6.23223 2.23223C6.70107 1.76339 7.33696 1.5 8 1.5C8.66304 1.5 9.29893 1.76339 9.76777 2.23223C10.2366 2.70107 10.5 3.33696 10.5 4V6H5.5V4ZM4 6V4C4 2.93913 4.42143 1.92172 5.17157 1.17157C5.92172 0.421427 6.93913 0 8 0C9.06087 0 10.0783 0.421427 10.8284 1.17157C11.5786 1.92172 12 2.93913 12 4V6H12.25C13.216 6 14 6.784 14 7.75V13.25C14 13.7141 13.8156 14.1592 13.4874 14.4874C13.1592 14.8156 12.7141 15 12.25 15H3.75C3.28587 15 2.84075 14.8156 2.51256 14.4874C2.18437 14.1592 2 13.7141 2 13.25V7.75C2 6.784 2.784 6 3.75 6H4Z"/>
</svg>

<svg width="16" height="16" viewBox="0 0 16 16" xmlns="http://www.w3.org/2000/svg">
  <path fill-rule="evenodd" clip-rule="evenodd" d="M5.5 4a2.5 2.5 0 015 0v2h-5V4zM4 6V4a4 4 0 118 0v2h.25c.966 0 1.75.784 1.75 1.75v5.5A1.75 1.75 0 0112.25 15h-8.5A1.75 1.75 0 012 13.25v-5.5C2 6.784 2.784 6 3.75 6H4z"/>
</svg>
